X:1
T:Title
%%score ( 1 2 3 ) 4
L:1/8
M:2/2
K:C
V:1 treble nm="Flute, Soprano"
V:2 treble 
V:3 treble 
V:4 bass nm="Church Organ, Bass"
V:1
 [Ec]6 [Ec]2 | [DB]4 [DB]4 | [Ec]4 [Cc]4 | [B,DG]8 | [CF]4 [CF]4 | [CA]6 [CF]2 | G4 z4 | %7
w: By~Old~Oxford~Carol *|||||||
 [Ec]4 [EG]4 | c4 c4 | [Ec]4 [Ec]2 [Ec]2 | [FB]4 [Ec]4 | [DG]6 [CE]2 | [CF]4 [CF]4 | [CA]6 [CF]2 | %14
w: |||||||
 [DG]8 | [CEc]4 G2 G2 | [Ec]4 [Ec]4 | [Ec]4 [Ec]2 [Ec]2 | [FB]4 [Ec]4 | [DG]6 [CE]2 | [CF]4 [CF]4 | %21
w: |||||||
 [CA]6 [CF]2 | [DG]8 | [CEc]8 |] %24
w: |||
V:2
 x8 | x8 | x8 | x8 | x8 | x8 | B,2 D2 G2 [FG]2 | x8 | E8 | x8 | x8 | x8 | x8 | x8 | C4 z2 G2 | x8 | %16
 x8 | x8 | x8 | x8 | x8 | x8 | C4 z2 G2 | x8 |] %24
V:3
 x8 | x8 | x8 | x8 | x8 | x8 | x8 | x8 | x8 | x8 | x8 | x8 | x8 | x8 | z4 B,4 | x8 | x8 | x8 | x8 | %19
 x8 | x8 | x8 | z4 B,4 | x8 |] %24
V:4
 C,6 C,2 | G,,4 G,,4 | C,4 E,4 | G,8 | A,4 A,4 | F,6 A,2 | G,6 [G,B,]2 | [C,G,C]4 [C,G,]4 | %8
 [C,G,]8 | [C,G,]4 [C,G,]2 [C,G,]2 | [D,G,]4 [C,G,]4 | [B,,G,]6 [_B,,G,]2 | [A,,F,]4 [A,,F,]4 | %13
 [F,,F,]6 [A,,F,]2 | [G,,D,]4 G,4 | [C,G,]4 G,2 G,2 | [C,G,]4 [C,G,]4 | [C,G,]4 [C,G,]2 [C,G,]2 | %18
 [D,G,]4 [D,G,]4 | [B,,G,]6 [_B,,G,]2 | [A,,F,]4 [A,,F,]4 | [F,,F,]6 [A,,F,]2 | [G,,D,]4 G,4 | %23
 [C,G,]8 |] %24

